lib/flags/l/NZ.svg

<svg xmlns="http://www.w3.org/2000/svg" fill="none" viewBox="0 0 32 24"><mask id="NZ_svg__a" width="32" height="24" x="0" y="0" mask-type="alpha" maskUnits="userSpaceOnUse"><path fill="#fff" d="M0 0H32V24H0z"/></mask><g mask="url(#NZ_svg__a)"><path fill="#2E42A5" fill-rule="evenodd" d="M0 0V24H32V0H0Z" clip-rule="evenodd"/><mask id="NZ_svg__b" width="32" height="24" x="0" y="0" mask-type="alpha" maskUnits="userSpaceOnUse"><path fill="#fff" fill-rule="evenodd" d="M0 0V24H32V0H0Z" clip-rule="evenodd"/></mask><g mask="url(#NZ_svg__b)"><path fill="#2B409A" d="M0 0H18V14H0z"/><mask id="NZ_svg__c" width="18" height="14" x="0" y="0" mask-type="alpha" maskUnits="userSpaceOnUse"><path fill="#fff" d="M0 0H18V14H0z"/></mask><g mask="url(#NZ_svg__c)"><path fill="#F7FCFF" d="M-2.00427 12.9997L1.95668 14.7369L18.0899 1.88866L20.1792 -0.692871L15.9435 -1.27349L9.36317 4.2632L4.06667 7.99363L-2.00427 12.9997Z"/><path fill="#F50100" d="M-1.46204 14.217L0.555885 15.2251L19.4289 -0.932617H16.5955L-1.46204 14.217Z"/><path fill="#F7FCFF" d="M20.0043 12.9997L16.0433 14.7369L-0.0898743 1.88866L-2.17919 -0.692871L2.05648 -1.27349L8.63683 4.2632L13.9333 7.99363L20.0043 12.9997Z"/><path fill="#F50100" d="M19.8691 13.8733L17.8512 14.8815L9.81489 7.96351L7.43229 7.19059L-2.3802 -0.683947H0.453194L10.2602 7.00368L12.8651 7.9305L19.8691 13.8733Z"/><mask id="NZ_svg__d" width="22" height="18" x="-2" y="-2" fill="#000" maskUnits="userSpaceOnUse"><path fill="#fff" d="M-2-2H20V16H-2z"/><path fill-rule="evenodd" d="M9.98451 0H7.98451V6H0V8H7.98451V14H9.98451V8H18V6H9.98451V0Z" clip-rule="evenodd"/></mask><path fill="#F50100" fill-rule="evenodd" d="M9.98451 0H7.98451V6H0V8H7.98451V14H9.98451V8H18V6H9.98451V0Z" clip-rule="evenodd"/><path fill="#F7FCFF" d="M7.98451 0V-1.5H6.48451V0H7.98451ZM9.98451 0H11.4845V-1.5H9.98451V0ZM7.98451 6V7.5H9.48451V6H7.98451ZM0 6V4.5H-1.5V6H0ZM0 8H-1.5V9.5H0V8ZM7.98451 8H9.48451V6.5H7.98451V8ZM7.98451 14H6.48451V15.5H7.98451V14ZM9.98451 14V15.5H11.4845V14H9.98451ZM9.98451 8V6.5H8.48451V8H9.98451ZM18 8V9.5H19.5V8H18ZM18 6H19.5V4.5H18V6ZM9.98451 6H8.48451V7.5H9.98451V6ZM7.98451 1.5H9.98451V-1.5H7.98451V1.5ZM9.48451 6V0H6.48451V6H9.48451ZM0 7.5H7.98451V4.5H0V7.5ZM1.5 8V6H-1.5V8H1.5ZM7.98451 6.5H0V9.5H7.98451V6.5ZM9.48451 14V8H6.48451V14H9.48451ZM9.98451 12.5H7.98451V15.5H9.98451V12.5ZM8.48451 8V14H11.4845V8H8.48451ZM18 6.5H9.98451V9.5H18V6.5ZM16.5 6V8H19.5V6H16.5ZM9.98451 7.5H18V4.5H9.98451V7.5ZM8.48451 0V6H11.4845V0H8.48451Z" mask="url(#NZ_svg__d)"/></g><path fill="#F50100" fill-rule="evenodd" d="M24.1 7.47068L23.8403 8.9847L25.2 8.26987L26.5597 8.9847L26.3 7.47068L27.4 6.39844L25.8798 6.17755L25.2 4.80005L24.5202 6.17755L23 6.39844L24.1 7.47068ZM20.1 13.0707L19.8403 14.5847L21.2 13.8699L22.5597 14.5847L22.3 13.0707L23.4 11.9984L21.8798 11.7776L21.2 10.4001L20.5202 11.7776L19 11.9984L20.1 13.0707ZM23.4266 19.4636L23.0898 21.4271L24.8532 20.5001L26.6165 21.4271L26.2798 19.4636L27.7063 18.073L25.7348 17.7865L24.8532 16.0001L23.9715 17.7865L22 18.073L23.4266 19.4636ZM26.8394 14.5801L27.0988 13.0677L26 11.9967L27.5185 11.776L28.1976 10.4001L28.8766 11.776L30.3951 11.9967L29.2963 13.0677L29.5557 14.5801L28.1976 13.866L26.8394 14.5801Z" clip-rule="evenodd"/><path fill="#F7FCFF" d="M23.8403 8.9847L23.6432 8.95089L23.5747 9.3503L23.9334 9.16172L23.8403 8.9847ZM24.1 7.47068L24.2971 7.50449L24.3149 7.40085L24.2396 7.32746L24.1 7.47068ZM25.2 8.26987L25.2931 8.09285L25.2 8.04392L25.1069 8.09285L25.2 8.26987ZM26.5597 8.9847L26.4666 9.16172L26.8253 9.3503L26.7568 8.95089L26.5597 8.9847ZM26.3 7.47068L26.1604 7.32746L26.0851 7.40085L26.1029 7.50449L26.3 7.47068ZM27.4 6.39844L27.5396 6.54166L27.8298 6.25879L27.4288 6.20052L27.4 6.39844ZM25.8798 6.17755L25.7005 6.26606L25.747 6.36035L25.8511 6.37547L25.8798 6.17755ZM25.2 4.80005L25.3793 4.71154L25.2 4.34814L25.0207 4.71154L25.2 4.80005ZM24.5202 6.17755L24.5489 6.37547L24.653 6.36035L24.6995 6.26606L24.5202 6.17755ZM23 6.39844L22.9712 6.20052L22.5702 6.25879L22.8604 6.54166L23 6.39844ZM19.8403 14.5847L19.6432 14.5509L19.5747 14.9503L19.9334 14.7617L19.8403 14.5847ZM20.1 13.0707L20.2971 13.1045L20.3149 13.0009L20.2396 12.9275L20.1 13.0707ZM21.2 13.8699L21.2931 13.6929L21.2 13.6439L21.1069 13.6929L21.2 13.8699ZM22.5597 14.5847L22.4666 14.7617L22.8253 14.9503L22.7568 14.5509L22.5597 14.5847ZM22.3 13.0707L22.1604 12.9275L22.0851 13.0009L22.1029 13.1045L22.3 13.0707ZM23.4 11.9984L23.5396 12.1417L23.8298 11.8588L23.4288 11.8005L23.4 11.9984ZM21.8798 11.7776L21.7005 11.8661L21.747 11.9604L21.8511 11.9755L21.8798 11.7776ZM21.2 10.4001L21.3793 10.3115L21.2 9.94814L21.0207 10.3115L21.2 10.4001ZM20.5202 11.7776L20.5489 11.9755L20.653 11.9604L20.6995 11.8661L20.5202 11.7776ZM19 11.9984L18.9712 11.8005L18.5702 11.8588L18.8604 12.1417L19 11.9984ZM23.0898 21.4271L22.8927 21.3933L22.8242 21.7927L23.1829 21.6041L23.0898 21.4271ZM23.4266 19.4636L23.6237 19.4974L23.6415 19.3938L23.5662 19.3204L23.4266 19.4636ZM24.8532 20.5001L24.9462 20.323L24.8532 20.2741L24.7601 20.323L24.8532 20.5001ZM26.6165 21.4271L26.5235 21.6041L26.8822 21.7927L26.8136 21.3933L26.6165 21.4271ZM26.2798 19.4636L26.1402 19.3204L26.0649 19.3938L26.0826 19.4974L26.2798 19.4636ZM27.7063 18.073L27.8459 18.2162L28.1361 17.9334L27.7351 17.8751L27.7063 18.073ZM25.7348 17.7865L25.5555 17.875L25.602 17.9693L25.7061 17.9845L25.7348 17.7865ZM24.8532 16.0001L25.0325 15.9115L24.8532 15.5482L24.6738 15.9115L24.8532 16.0001ZM23.9715 17.7865L24.0003 17.9845L24.1043 17.9693L24.1508 17.875L23.9715 17.7865ZM22 18.073L21.9712 17.8751L21.5702 17.9334L21.8604 18.2162L22 18.073ZM27.0988 13.0677L27.2959 13.1015L27.3137 12.9979L27.2384 12.9245L27.0988 13.0677ZM26.8394 14.5801L26.6423 14.5462L26.5738 14.9457L26.9325 14.7571L26.8394 14.5801ZM26 11.9967L25.9712 11.7988L25.5702 11.857L25.8604 12.1399L26 11.9967ZM27.5185 11.776L27.5472 11.9739L27.6513 11.9588L27.6978 11.8645L27.5185 11.776ZM28.1976 10.4001L28.3769 10.3115L28.1976 9.94814L28.0182 10.3115L28.1976 10.4001ZM28.8766 11.776L28.6973 11.8645L28.7438 11.9588L28.8479 11.9739L28.8766 11.776ZM30.3951 11.9967L30.5347 12.1399L30.8249 11.857L30.4239 11.7988L30.3951 11.9967ZM29.2963 13.0677L29.1567 12.9245L29.0814 12.9979L29.0992 13.1015L29.2963 13.0677ZM29.5557 14.5801L29.4627 14.7571L29.8213 14.9457L29.7528 14.5462L29.5557 14.5801ZM28.1976 13.866L28.2906 13.689L28.1976 13.6401L28.1045 13.689L28.1976 13.866ZM24.0374 9.01851L24.2971 7.50449L23.9029 7.43687L23.6432 8.95089L24.0374 9.01851ZM25.1069 8.09285L23.7473 8.80767L23.9334 9.16172L25.2931 8.4469L25.1069 8.09285ZM26.6527 8.80767L25.2931 8.09285L25.1069 8.4469L26.4666 9.16172L26.6527 8.80767ZM26.1029 7.50449L26.3626 9.01851L26.7568 8.95089L26.4971 7.43687L26.1029 7.50449ZM27.2604 6.25523L26.1604 7.32746L26.4396 7.61389L27.5396 6.54166L27.2604 6.25523ZM25.8511 6.37547L27.3712 6.59636L27.4288 6.20052L25.9086 5.97963L25.8511 6.37547ZM25.0207 4.88856L25.7005 6.26606L26.0592 6.08904L25.3793 4.71154L25.0207 4.88856ZM24.6995 6.26606L25.3793 4.88856L25.0207 4.71154L24.3408 6.08904L24.6995 6.26606ZM23.0288 6.59636L24.5489 6.37547L24.4914 5.97963L22.9712 6.20052L23.0288 6.59636ZM24.2396 7.32746L23.1396 6.25523L22.8604 6.54166L23.9604 7.61389L24.2396 7.32746ZM20.0374 14.6185L20.2971 13.1045L19.9029 13.0369L19.6432 14.5509L20.0374 14.6185ZM21.1069 13.6929L19.7473 14.4077L19.9334 14.7617L21.2931 14.0469L21.1069 13.6929ZM22.6527 14.4077L21.2931 13.6929L21.1069 14.0469L22.4666 14.7617L22.6527 14.4077ZM22.1029 13.1045L22.3626 14.6185L22.7568 14.5509L22.4971 13.0369L22.1029 13.1045ZM23.2604 11.8552L22.1604 12.9275L22.4396 13.2139L23.5396 12.1417L23.2604 11.8552ZM21.8511 11.9755L23.3712 12.1964L23.4288 11.8005L21.9086 11.5796L21.8511 11.9755ZM21.0207 10.4886L21.7005 11.8661L22.0592 11.689L21.3793 10.3115L21.0207 10.4886ZM20.6995 11.8661L21.3793 10.4886L21.0207 10.3115L20.3408 11.689L20.6995 11.8661ZM19.0288 12.1964L20.5489 11.9755L20.4914 11.5796L18.9712 11.8005L19.0288 12.1964ZM20.2396 12.9275L19.1396 11.8552L18.8604 12.1417L19.9604 13.2139L20.2396 12.9275ZM23.2869 21.4609L23.6237 19.4974L23.2295 19.4298L22.8927 21.3933L23.2869 21.4609ZM24.7601 20.323L22.9967 21.2501L23.1829 21.6041L24.9462 20.6771L24.7601 20.323ZM26.7096 21.2501L24.9462 20.323L24.7601 20.6771L26.5235 21.6041L26.7096 21.2501ZM26.0826 19.4974L26.4194 21.4609L26.8136 21.3933L26.4769 19.4298L26.0826 19.4974ZM27.5667 17.9298L26.1402 19.3204L26.4194 19.6068L27.8459 18.2162L27.5667 17.9298ZM25.7061 17.9845L27.6776 18.2709L27.7351 17.8751L25.7636 17.5886L25.7061 17.9845ZM24.6738 16.0886L25.5555 17.875L25.9142 17.698L25.0325 15.9115L24.6738 16.0886ZM24.1508 17.875L25.0325 16.0886L24.6738 15.9115L23.7921 17.698L24.1508 17.875ZM22.0288 18.2709L24.0003 17.9845L23.9427 17.5886L21.9712 17.8751L22.0288 18.2709ZM23.5662 19.3204L22.1396 17.9298L21.8604 18.2162L23.287 19.6068L23.5662 19.3204ZM26.9017 13.0339L26.6423 14.5462L27.0365 14.6139L27.2959 13.1015L26.9017 13.0339ZM25.8604 12.1399L26.9592 13.2109L27.2384 12.9245L26.1396 11.8535L25.8604 12.1399ZM27.4897 11.5781L25.9712 11.7988L26.0288 12.1946L27.5472 11.9739L27.4897 11.5781ZM28.0182 10.3115L27.3391 11.6875L27.6978 11.8645L28.3769 10.4886L28.0182 10.3115ZM29.056 11.6875L28.3769 10.3115L28.0182 10.4886L28.6973 11.8645L29.056 11.6875ZM30.4239 11.7988L28.9054 11.5781L28.8479 11.9739L30.3664 12.1946L30.4239 11.7988ZM29.4359 13.2109L30.5347 12.1399L30.2555 11.8535L29.1567 12.9245L29.4359 13.2109ZM29.7528 14.5462L29.4935 13.0339L29.0992 13.1015L29.3586 14.6139L29.7528 14.5462ZM28.1045 14.0431L29.4627 14.7571L29.6488 14.403L28.2906 13.689L28.1045 14.0431ZM26.9325 14.7571L28.2906 14.0431L28.1045 13.689L26.7463 14.403L26.9325 14.7571Z"/></g></g></svg>

<svg xmlns="http://www.w3.org/2000/svg" fill="none" viewBox="0 0 32 24"><g mask="url(#NZ_svg__NZ_-_New_Zealand_(Aotearoa)"><path fill="#2E42A5" fill-rule="evenodd" d="M0 0v24h32V0H0z" clip-rule="evenodd"/><g mask="url(#NZ_svg__NZ_-_New_Zealand_(Aotearoa)"><path fill="#2B409A" d="M0 0h18v14H0z"/><g mask="url(#NZ_svg__NZ_-_New_Zealand_(Aotearoa)"><path fill="#F7FCFF" d="M-2.004 13l3.96 1.737L18.09 1.889l2.09-2.582-4.236-.58-6.58 5.536-5.297 3.73L-2.004 13z"/><path fill="#F50100" d="M-1.462 14.217l2.018 1.008L19.429-.933h-2.833l-18.058 15.15z"/><path fill="#F7FCFF" d="M20.004 13l-3.96 1.737L-.09 1.889-2.18-.693l4.236-.58 6.58 5.536 5.297 3.73L20.004 13z"/><path fill="#F50100" d="M19.87 13.873l-2.019 1.009-8.036-6.918-2.383-.773L-2.38-.684H.453l9.807 7.688 2.605.927 7.004 5.942z"/><path fill="#F50100" fill-rule="evenodd" d="M9.985 0h-2v6H0v2h7.985v6h2V8H18V6H9.985V0z" clip-rule="evenodd"/><path fill="#F7FCFF" d="M7.985 0v-1.5h-1.5V0h1.5zm2 0h1.5v-1.5h-1.5V0zm-2 6v1.5h1.5V6h-1.5zM0 6V4.5h-1.5V6H0zm0 2h-1.5v1.5H0V8zm7.985 0h1.5V6.5h-1.5V8zm0 6h-1.5v1.5h1.5V14zm2 0v1.5h1.5V14h-1.5zm0-6V6.5h-1.5V8h1.5zM18 8v1.5h1.5V8H18zm0-2h1.5V4.5H18V6zM9.985 6h-1.5v1.5h1.5V6zm-2-4.5h2v-3h-2v3zm1.5 4.5V0h-3v6h3zM0 7.5h7.985v-3H0v3zm1.5.5V6h-3v2h3zm6.485-1.5H0v3h7.985v-3zm1.5 7.5V8h-3v6h3zm.5-1.5h-2v3h2v-3zM8.485 8v6h3V8h-3zM18 6.5H9.985v3H18v-3zM16.5 6v2h3V6h-3zM9.985 7.5H18v-3H9.985v3zM8.485 0v6h3V0h-3z" mask="url(#NZ_svg__NZ_-_New_Zealand_(Aotearoa)"/></g><path fill="#F50100" fill-rule="evenodd" d="M24.1 7.47l-.26 1.515 1.36-.715 1.36.715-.26-1.514 1.1-1.073-1.52-.22L25.2 4.8l-.68 1.377-1.52.221 1.1 1.073zm-4 5.6l-.26 1.515 1.36-.715 1.36.715-.26-1.514 1.1-1.073-1.52-.22-.68-1.378-.68 1.377-1.52.221 1.1 1.073zm3.327 6.393l-.337 1.964 1.763-.927 1.763.927-.336-1.963 1.426-1.391-1.971-.287L24.853 16l-.882 1.787-1.971.286 1.427 1.39zm3.412-4.883l.26-1.512L26 11.997l1.518-.221.68-1.376.679 1.376 1.518.22-1.099 1.072.26 1.512-1.358-.714-1.359.714z" clip-rule="evenodd"/><path fill="#F7FCFF" d="M23.84 8.985l-.197-.034-.068.4.358-.19-.093-.176zm.26-1.514l.197.033.018-.103-.075-.074-.14.144zm1.1.799l.093-.177-.093-.05-.093.05.093.177zm1.36.715l-.093.177.358.188-.068-.4-.197.035zM26.3 7.47l-.14-.144-.075.074.018.103.197-.033zm1.1-1.073l.14.144.29-.283-.401-.059-.029.198zm-1.52-.22l-.18.088.047.094.104.015.029-.198zM25.2 4.8l.18-.089-.18-.363-.18.363.18.089zm-.68 1.377l.029.198.104-.015.047-.094-.18-.089zM23 6.398l-.029-.198-.4.059.29.283.139-.144zm-3.16 8.187l-.197-.034-.068.4.358-.19-.093-.176zm.26-1.514l.197.033.018-.103-.075-.074-.14.144zm1.1.799l.093-.177-.093-.05-.093.05.093.177zm1.36.715l-.093.177.358.188-.068-.4-.197.035zm-.26-1.514l-.14-.144-.075.074.018.103.197-.033zm1.1-1.073l.14.144.29-.283-.401-.059-.029.198zm-1.52-.22l-.18.088.047.094.104.015.029-.197zM21.2 10.4l.18-.088-.18-.364-.18.364.18.088zm-.68 1.377l.029.198.104-.015.047-.094-.18-.088zm-1.52.221l-.029-.197-.4.058.29.283.139-.144zm4.09 9.43l-.197-.035-.069.4.359-.189-.093-.177zm.337-1.965l.197.034.018-.103-.076-.074-.14.143zm1.426 1.037l.093-.177-.093-.049-.093.049.093.177zm1.763.927l-.093.177.36.189-.07-.4-.197.034zm-.336-1.963l-.14-.144-.075.074.018.103.197-.034zm1.426-1.391l.14.143.29-.283-.4-.058-.03.198zm-1.971-.287l-.18.089.047.094.104.015.029-.198zM24.853 16l.18-.088-.18-.364-.18.364.18.088zm-.882 1.787l.03.197.103-.015.047-.094-.18-.088zM22 18.073l-.029-.198-.4.058.29.283.139-.143zm5.099-5.005l.197.034.018-.104-.076-.074-.14.144zm-.26 1.512l-.197-.034-.068.4.358-.189-.093-.177zM26 11.997l-.029-.198-.4.058.29.283.139-.143zm1.518-.221l.03.198.103-.015.047-.095-.18-.088zm.68-1.376l.179-.088-.18-.364-.179.364.18.088zm.679 1.376l-.18.088.047.095.104.015.029-.198zm1.518.22l.14.144.29-.283-.401-.058-.029.198zm-1.099 1.072l-.14-.144-.075.074.018.104.197-.034zm.26 1.512l-.093.177.358.189-.068-.4-.197.034zm-1.358-.714l.093-.177-.093-.049-.093.049.093.177zm-4.16-4.848l.26-1.514-.395-.067-.26 1.514.394.067zm1.069-.925l-1.36.715.186.354 1.36-.715-.186-.354zm1.546.715l-1.36-.715-.186.354 1.36.715.186-.354zm-.55-1.304l.26 1.514.394-.067-.26-1.514-.394.067zm1.157-1.249l-1.1 1.072.28.287 1.1-1.072-.28-.287zm-1.409.12l1.52.221.058-.396-1.52-.22-.058.395zm-.83-1.487l.68 1.378.358-.177-.68-1.378-.358.177zm-.322 1.378l.68-1.378-.358-.177-.68 1.378.358.177zm-1.67.33l1.52-.22-.058-.396-1.52.22.058.396zm1.21.731l-1.1-1.072-.279.287 1.1 1.072.28-.287zm-4.202 7.291l.26-1.514-.394-.067-.26 1.514.394.067zm1.07-.925l-1.36.715.186.354 1.36-.715-.186-.354zm1.546.715l-1.36-.715-.186.354 1.36.715.186-.354zm-.55-1.304l.26 1.514.394-.067-.26-1.514-.394.067zm1.157-1.249l-1.1 1.072.28.287 1.1-1.072-.28-.287zm-1.409.12l1.52.221.058-.396-1.52-.22-.058.395zm-.83-1.486l.68 1.377.358-.177-.68-1.377-.358.177zm-.322 1.377l.68-1.377-.358-.178-.68 1.378.358.177zm-1.67.33l1.52-.22-.058-.396-1.52.22.058.396zm1.21.731l-1.1-1.072-.279.287 1.1 1.072.28-.287zm3.048 8.534l.337-1.964-.394-.067-.337 1.963.394.068zm1.473-1.138l-1.763.927.186.354 1.763-.927-.186-.354zm1.95.927l-1.764-.927-.186.354 1.763.927.187-.354zm-.627-1.753l.336 1.964.395-.068-.337-1.963-.394.067zm1.484-1.567l-1.427 1.39.28.287 1.426-1.39-.28-.287zm-1.86.054l1.97.287.058-.396-1.971-.286-.058.395zm-1.033-1.896l.881 1.787.36-.177-.883-1.787-.358.178zm-.523 1.787l.881-1.787-.358-.177-.882 1.787.359.177zm-2.122.396L24 17.984l-.057-.395-1.972.286.058.396zm1.537 1.05L22.14 17.93l-.28.286 1.427 1.39.28-.286zm3.336-6.287l-.26 1.512.395.068.259-1.513-.394-.067zm-1.042-.894l1.1 1.07.278-.286-1.098-1.07-.28.286zm1.63-.562l-1.519.22.058.396 1.518-.22-.057-.396zm.528-1.266l-.679 1.376.359.176.679-1.376-.359-.176zm1.038 1.376l-.68-1.377-.358.178.68 1.375.358-.177zm1.368.11l-1.519-.22-.057.396 1.518.22.058-.395zm-.988 1.413l1.099-1.071-.28-.287-1.098 1.071.279.287zm.317 1.335l-.26-1.512-.394.067.26 1.513.394-.068zm-1.648-.503l1.358.714.186-.354-1.358-.714-.186.354zm-1.172.714l1.358-.714-.186-.354-1.359.714.187.354z"/></g></g></svg>
